svgs/sharp-solid/cloud-sleet.svg

<svg xmlns="http://www.w3.org/2000/svg" viewBox="0 0 512 512"><!--! Font Awesome Pro 6.4.2 by @fontawesome - https://fontawesome.com License - https://fontawesome.com/license (Commercial License) Copyright 2023 Fonticons, Inc. --><path d="M96 320H0V224c0-41.8 26.7-77.4 64-90.5V112C64 50.1 114.1 0 176 0c43.1 0 80.5 24.3 99.2 60c14.7-17.1 36.5-28 60.8-28c44.2 0 80 35.8 80 80v16c53 0 96 43 96 96v96H416 96zm24 32L48 512H0L72 352h48zm256 0L304 512H256l72-160h48zm-160 0v24 16h16 24v48H232 216v16 24H168V456 440H152 128V392h24 16V376 352h48zm256 0v24 16h16 24v48H488 472v16 24H424V456 440H408 384V392h24 16V376 352h48z"/></svg>

<svg xmlns="http://www.w3.org/2000/svg" viewBox="0 0 512 512"><!--! Font Awesome Pro 6.6.0 by @fontawesome - https://fontawesome.com License - https://fontawesome.com/license (Commercial License) Copyright 2024 Fonticons, Inc. --><path d="M96 320L0 320l0-96c0-41.8 26.7-77.4 64-90.5L64 112C64 50.1 114.1 0 176 0c43.1 0 80.5 24.3 99.2 60c14.7-17.1 36.5-28 60.8-28c44.2 0 80 35.8 80 80l0 16c53 0 96 43 96 96l0 96-96 0L96 320zm24 32L48 512 0 512 72 352l48 0zm256 0L304 512l-48 0 72-160 48 0zm-160 0l0 24 0 16 16 0 24 0 0 48-24 0-16 0 0 16 0 24-48 0 0-24 0-16-16 0-24 0 0-48 24 0 16 0 0-16 0-24 48 0zm256 0l0 24 0 16 16 0 24 0 0 48-24 0-16 0 0 16 0 24-48 0 0-24 0-16-16 0-24 0 0-48 24 0 16 0 0-16 0-24 48 0z"/></svg>
